X: 17
T: Banish Misfortune
Z: Graham Glendinning
S: https://thesession.org/tunes/9#setting53813
R: jig
M: 6/8
L: 1/8
K: Dmix
|:fed cAG|AdB cAG|FAD ~D3|EFF GFG|
~A3 BAG|~A3 d2e|fed cAG|Ad^c d2e:|
|:fdd d^cd|~f3 agf|~e3 cBc|~e2f gfe|
f2g agf|e2f gfe|fed cAG|Ad^c d2e:|
|:f2a e2f|d2e c2d|~A3 ~G3|~F3 GED|
c3 BAG|~A3 d2e|(3gfe d cAG|Ad^c d2e:|

%-------------------- TUNE SEPARATOR --------------------%

